X: 20753
T: 'TWERE VAIN TO TELL THEE ALL I FEEL
Q: "Waltz."
%R: waltz
B: W. Hamilton "Universal Tune-Book" Vol. 2 Glasgow 1846 p.75 #3
S: http://s3-eu-west-1.amazonaws.com/itma.dl.printmaterial/book_pdfs/hamiltonvol2web.pdf
Z: 2016 John Chambers <jc:trillian.mit.edu>
M: 3/4
L: 1/8
K: G
% - - - - - - - - - - - - - - - - - - - - - - - - -
BBc |\
d3dba | g2B2(ed) | dFFAed | d2G2(Bc) |\
d3dba | g2B2(ed) | d^ced=cA | G4 |]
(ed) |\
dFFAed | dGGBed | dFFAed | (d2B)BBc |\
d3dba | g2B2dd | d^ced=cA | G3 |]
% - - - - - - - - - - - - - - - - - - - - - - - - -

%%sep 1 1 500
%%sep 1 1 500

